X:1
T:College, 85.85
T:College, 85.85
T:F. K. March, 1905
T:Public Domain Courtesy of the Cyber Hymnal™
C:F. K. March, 1905
Z:Public Domain
Z:Courtesy of the Cyber Hymnal™
%%score ( 1 2 ) ( 3 4 )
L:1/8
Q:1/4=125
M:3/2
K:D
V:1 treble 
V:2 treble 
V:3 bass 
V:4 bass 
V:1
 D2 [DF]2 | [FA]4 [EA]4 [^DB]2 [DF]2 | [^DA]4 [EG]4 [CF]2 [CE]2 | D8 [DE]4 | [DF]8 [DF]2 [EG]2 | %5
 [FA]4 [Fd]4 [Fe]2 [Fd]2 | [Ec]4 [DB]4 [^Ec]2 [EB]2 | ([FA]4 D4) [CE]4 | D8 |] %9
V:2
 D2 x2 | x12 | x12 | D8 x4 | x12 | x12 | x12 | x4 D4 x4 | D8 |] %9
V:3
 [D,F,]2 [D,A,]2 | [D,D]4 [=C,A,]4 [B,,F,]2 [B,,B,]2 | [E,B,]4 [E,B,]4 [A,,A,]2 [A,,G,]2 | %3
 F,8 [G,,B,]4 | [D,A,]8 [D,A,]2 [D,A,]2 | [D,D]4 [D,A,]4 [F,A,]2 [F,A,]2 | %6
 [G,^A,]4 [G,B,]4 [^G,D]2 [G,D]2 | ([A,D]4 [A,,G,]4) [A,,G,]4 | [D,F,]8 |] %9
V:4
 x4 | x12 | x12 | (B,,4 A,,4) x4 | x12 | x12 | x12 | x12 | x8 |] %9

